X: 426
%
U:~=!turn!
T: Miss Sophia Duff Stuart's Favourite
C:
O:Scotland
B:Keith Norman MacDonald : "The Skye collection of the best reels & strathspeys extant" : 1887
Z:Ralph Palmer
R:Reel
M:C
L:1/8
K:D
A2 !segno!|| FD (3DDD D2 DF | EA, (3A,A,A, A,2 A,A | FD (3DDD D2 DA | Bd ce dB AG |
FD (3DDD D2 DF | EA, (3A,A,A, A,2 A,A | FD (3DDD D2 DA | Bd ce d2 de || fd fd fgaf | eA eA efge |
fd df gf ed | cABc dcde | fd fd fgaf | eA eA efge | fd df gfed | cABc dB AG !segno!|]


